public/svgs/twin/time.svg

<svg width="20" height="20" viewBox="0 0 20 20" fill="none" xmlns="http://www.w3.org/2000/svg">
<g id="Icon">
<path id="Vector" d="M12.75 13.917L13.9166 12.7503L10.8333 9.66699V5.83366H9.16663V10.3337L12.75 13.917ZM9.99996 18.3337C8.84718 18.3337 7.76385 18.1149 6.74996 17.6774C5.73607 17.2399 4.85413 16.6462 4.10413 15.8962C3.35413 15.1462 2.76038 14.2642 2.32288 13.2503C1.88538 12.2364 1.66663 11.1531 1.66663 10.0003C1.66663 8.84755 1.88538 7.76421 2.32288 6.75033C2.76038 5.73644 3.35413 4.85449 4.10413 4.10449C4.85413 3.35449 5.73607 2.76074 6.74996 2.32324C7.76385 1.88574 8.84718 1.66699 9.99996 1.66699C11.1527 1.66699 12.2361 1.88574 13.25 2.32324C14.2638 2.76074 15.1458 3.35449 15.8958 4.10449C16.6458 4.85449 17.2395 5.73644 17.677 6.75033C18.1145 7.76421 18.3333 8.84755 18.3333 10.0003C18.3333 11.1531 18.1145 12.2364 17.677 13.2503C17.2395 14.2642 16.6458 15.1462 15.8958 15.8962C15.1458 16.6462 14.2638 17.2399 13.25 17.6774C12.2361 18.1149 11.1527 18.3337 9.99996 18.3337ZM9.99996 16.667C11.8472 16.667 13.4201 16.0177 14.7187 14.7191C16.0173 13.4205 16.6666 11.8475 16.6666 10.0003C16.6666 8.1531 16.0173 6.58019 14.7187 5.28158C13.4201 3.98296 11.8472 3.33366 9.99996 3.33366C8.15274 3.33366 6.57982 3.98296 5.28121 5.28158C3.9826 6.58019 3.33329 8.1531 3.33329 10.0003C3.33329 11.8475 3.9826 13.4205 5.28121 14.7191C6.57982 16.0177 8.15274 16.667 9.99996 16.667Z" fill="#C11111"/>
</g>
</svg>

<svg xmlns="http://www.w3.org/2000/svg" width="20" height="20" fill="none" viewBox="0 0 20 20"><path fill="#c11111" d="m12.75 13.917 1.167-1.167-3.084-3.083V5.834H9.167v4.5zM10 18.334a8.1 8.1 0 0 1-3.25-.657 8.4 8.4 0 0 1-2.646-1.78 8.4 8.4 0 0 1-1.781-2.647A8.1 8.1 0 0 1 1.667 10q0-1.729.656-3.25a8.4 8.4 0 0 1 1.781-2.646 8.4 8.4 0 0 1 2.646-1.78A8.1 8.1 0 0 1 10 1.666q1.73 0 3.25.656a8.4 8.4 0 0 1 2.646 1.781 8.4 8.4 0 0 1 1.781 2.646 8.1 8.1 0 0 1 .656 3.25 8.1 8.1 0 0 1-.656 3.25 8.4 8.4 0 0 1-1.781 2.646 8.4 8.4 0 0 1-2.646 1.781 8.1 8.1 0 0 1-3.25.657m0-1.667q2.77 0 4.719-1.948 1.947-1.947 1.948-4.719 0-2.77-1.948-4.718T10 3.334 5.281 5.282 3.333 10t1.948 4.72T10 16.666"/></svg>
